X: 3582
T: Bike Trip, The
R: polka
M: 2/4
K: Dmajor
|:A/B/A/F/ DF|AF GE|c/d/c/B/ AG|EB BA|
A/B/A/F/ DF|AF GE|c/d/c/B/ AG|Ec d2:|
|:f>g fe|ed A2|A/B/A/G/ Ec|B/c/B/A/ FA|
f>g fe|ed A2|A/B/A/G/ Ec|BA d2:|

